svg/godot.svg

<svg viewBox="0 0 20 20" xmlns="http://www.w3.org/2000/svg">
<rect width="100%" height="100%" fill="#478CBE"/>
<path d="M14.5223 11.1081C14.7302 10.9044 14.849 10.6272 14.8529 10.3366C14.8552 10.0468 14.7429 9.76764 14.5403 9.55971C14.3377 9.35178 14.0611 9.23176 13.7705 9.22564C13.6218 9.21754 13.4731 9.2395 13.3332 9.29019C13.1933 9.34088 13.0651 9.41926 12.9564 9.52062C12.8477 9.62197 12.7607 9.7442 12.7005 9.87996C12.6404 10.0157 12.6085 10.1622 12.6066 10.3106C12.6047 10.459 12.633 10.6062 12.6897 10.7434C12.7464 10.8806 12.8303 11.005 12.9364 11.1091C13.0426 11.2131 13.1687 11.2947 13.3073 11.3488C13.4459 11.403 13.594 11.4287 13.7428 11.4243C14.0343 11.4254 14.3144 11.3118 14.5223 11.1081Z" fill="white"/>
<path d="M7.02427 9.55066C6.81845 9.34545 6.53977 9.22943 6.24869 9.22776C6.03004 9.22692 5.81607 9.29085 5.63392 9.41144C5.45176 9.53203 5.30964 9.70384 5.22558 9.90508C5.14151 10.1063 5.1193 10.3279 5.16175 10.5418C5.2042 10.7556 5.3094 10.9521 5.46401 11.1062C5.61863 11.2604 5.81568 11.3653 6.03017 11.4076C6.24466 11.4499 6.46693 11.4278 6.66878 11.3439C6.87063 11.2601 7.04296 11.1184 7.16391 10.9368C7.28486 10.7552 7.34899 10.5419 7.34814 10.3239C7.34647 10.0337 7.2301 9.75586 7.02427 9.55066Z" fill="white"/>
<path fill-rule="evenodd" clip-rule="evenodd" d="M14.0167 14.6772L14.0155 14.6773C13.7395 14.6936 13.4721 14.7093 13.2048 14.7297C12.9833 14.7466 12.7649 14.7643 12.5488 14.7818L12.5419 14.7823C12.4076 14.7932 12.2742 14.804 12.1415 14.8145H11.9288C11.9195 14.7543 11.9094 14.6941 11.8994 14.6339C11.8843 14.5435 11.8693 14.4532 11.8565 14.3629C11.8395 14.2505 11.8236 14.1381 11.8076 14.0257C11.7917 13.9135 11.7757 13.8009 11.7587 13.6887C11.7465 13.6231 11.7126 13.5635 11.6626 13.5193C11.6125 13.4751 11.549 13.4489 11.4822 13.4448C11.4511 13.4427 11.4198 13.4427 11.3887 13.4448H8.62409C8.54073 13.4345 8.45651 13.4557 8.38804 13.5042C8.33171 13.5485 8.28958 13.6081 8.26682 13.6759C8.23493 13.8274 8.21388 13.9788 8.19283 14.1303C8.18441 14.1909 8.17599 14.2514 8.16687 14.312C8.14136 14.4753 8.11796 14.6385 8.09457 14.8103H7.96485L6.8335 14.7212L6.31886 14.6873L5.69365 14.6597C5.67728 14.6123 5.66588 14.5632 5.65962 14.5134C5.6497 14.3721 5.64166 14.2402 5.63363 14.1082C5.62962 14.0425 5.62558 13.9761 5.62134 13.9092C5.62134 13.7687 5.60733 13.6265 5.59361 13.4872L5.58944 13.4448C5.588 13.3715 5.55901 13.3015 5.5082 13.2485C5.4574 13.1954 5.38849 13.1634 5.31511 13.1586L2.62072 12.9063C2.60158 12.9063 2.58244 12.9063 2.54628 12.8872V8.60655C2.54894 8.47833 2.50684 8.35318 2.4272 8.25247C2.19265 7.93647 1.96401 7.6087 1.73511 7.28056C1.65688 7.16841 1.57853 7.05609 1.5 6.94431C1.93357 6.22031 2.44872 5.54809 3.0354 4.94072C3.55548 5.19715 4.05841 5.4868 4.54103 5.80788C5.03125 5.36419 5.56815 4.97464 6.14236 4.64601L5.98924 2.78659C6.71235 2.4312 7.47761 2.16833 8.26682 2.00424C8.58328 2.52928 8.86735 3.07306 9.11746 3.63256C9.7055 3.53718 10.3051 3.53718 10.8932 3.63256C11.1473 3.07361 11.4312 2.52864 11.7438 2C12.5242 2.16862 13.2806 2.43282 13.9959 2.78659C13.9796 3.40783 13.9306 4.02778 13.8491 4.64389C14.4306 4.97522 14.9734 5.36988 15.4675 5.8206C15.9515 5.49947 16.4559 5.20982 16.9774 4.95344C17.5574 5.55098 18.0682 6.21169 18.5 6.92311C18.211 7.39934 17.8951 7.85875 17.5537 8.29912C17.4946 8.37141 17.4637 8.46248 17.4665 8.55566V12.8872C17.4395 12.8978 17.4118 12.9063 17.3835 12.9127C17.2921 12.9205 17.2006 12.928 17.1092 12.9355C16.9264 12.9506 16.7433 12.9657 16.5605 12.9826C16.3369 13.0044 16.1124 13.0285 15.8881 13.0526C15.7414 13.0684 15.5947 13.0842 15.4483 13.0993C15.1995 13.1247 14.9528 13.1459 14.704 13.165C14.6649 13.1647 14.6262 13.1722 14.5901 13.187C14.5539 13.2019 14.5211 13.2238 14.4936 13.2514C14.4661 13.2791 14.4444 13.3119 14.4297 13.348C14.4151 13.3842 14.4079 13.4229 14.4084 13.4618C14.3967 13.6325 14.3856 13.8026 14.3744 13.9728C14.3632 14.1429 14.3521 14.3131 14.3404 14.4837C14.338 14.5108 14.3324 14.5397 14.3261 14.5724C14.3209 14.5988 14.3153 14.6276 14.3106 14.6597C14.2113 14.6658 14.1135 14.6715 14.0167 14.6772ZM15.5696 10.2306C15.5691 9.90451 15.4721 9.58574 15.2907 9.31433C15.1084 9.04174 14.8492 8.82917 14.5457 8.70352C14.2423 8.57787 13.9083 8.54477 13.586 8.60842C13.2636 8.67208 12.9675 8.82962 12.735 9.06111C12.5025 9.2926 12.3441 9.58765 12.2799 9.90892C12.2156 10.2302 12.2484 10.5632 12.374 10.8659C12.4997 11.1686 12.7126 11.4274 12.9857 11.6094C13.2589 11.7914 13.5801 11.8886 13.9087 11.8886C14.3494 11.8881 14.7718 11.7131 15.0832 11.4023C15.3946 11.0914 15.5696 10.67 15.5696 10.2306ZM4.43045 10.2349C4.42848 10.4523 4.4697 10.6679 4.55173 10.8694C4.63375 11.0708 4.75496 11.2541 4.90837 11.4086C5.06178 11.5631 5.24435 11.6858 5.44555 11.7697C5.64675 11.8535 5.86261 11.8968 6.08069 11.8971C6.40995 11.8996 6.73254 11.8046 7.0076 11.6242C7.28266 11.4437 7.49779 11.1859 7.62574 10.8834C7.75369 10.5809 7.7887 10.2474 7.72633 9.92507C7.66395 9.60273 7.507 9.30611 7.27537 9.0728C7.04374 8.83948 6.74785 8.67997 6.4252 8.61448C6.10255 8.54899 5.76766 8.58047 5.46297 8.70493C5.15828 8.82938 4.89751 9.04121 4.71369 9.31358C4.52988 9.58595 4.4313 9.90658 4.43045 10.2349ZM10.5316 10.8073V10.0144C10.5331 9.9606 10.5238 9.90709 10.5045 9.85688C10.4852 9.80668 10.4561 9.76077 10.4189 9.72177C10.3354 9.62856 10.2227 9.5663 10.0991 9.54512C9.97551 9.52395 9.84839 9.54511 9.73843 9.60516C9.65933 9.64065 9.59219 9.69813 9.54504 9.77071C9.49789 9.84329 9.47274 9.92789 9.4726 10.0144V11.5685C9.47543 11.635 9.49285 11.7002 9.52364 11.7593C9.55983 11.8316 9.61326 11.894 9.67926 11.9409C9.74526 11.9879 9.8218 12.018 9.90218 12.0286C9.97829 12.0448 10.0571 12.0441 10.1329 12.0265C10.2087 12.0088 10.2796 11.9746 10.3406 11.9264C10.4016 11.8781 10.4511 11.817 10.4856 11.7475C10.5201 11.6779 10.5387 11.6015 10.5402 11.5239C10.5248 11.352 10.5272 11.1834 10.5297 11.0093C10.5307 10.9429 10.5316 10.8758 10.5316 10.8073Z" fill="white"/>
<path d="M8.8006 14.0428H11.1951L11.2002 14.0695L11.2093 14.1166C11.2221 14.1824 11.2348 14.2478 11.2441 14.3141C11.2688 14.4822 11.2915 14.6493 11.3142 14.8167C11.3248 14.8942 11.3354 14.972 11.3461 15.0498C11.3451 15.0604 11.3451 15.0711 11.3461 15.0817C11.3929 15.3764 11.5248 15.4696 11.8204 15.4188C11.8515 15.4167 11.8828 15.4167 11.9139 15.4188L13.0498 15.3488C13.3495 15.3297 13.6493 15.3106 13.9491 15.2873C14.0873 15.2763 14.2336 15.2635 14.3804 15.2506C14.4593 15.2437 14.5389 15.2367 14.6168 15.2301C14.6954 15.2246 14.7689 15.1892 14.822 15.1312C14.875 15.0731 14.9036 14.9969 14.9018 14.9184C14.913 14.7864 14.9205 14.6545 14.9281 14.5225L14.9358 14.3905C14.9507 14.1784 14.9656 13.9664 14.9784 13.7544C15.0131 13.7496 15.0476 13.7438 15.0819 13.7381C15.138 13.7287 15.1939 13.7194 15.2506 13.7141C15.3699 13.7028 15.4897 13.6931 15.6095 13.6835C15.7586 13.6715 15.908 13.6594 16.0565 13.6442L17.1688 13.5297H17.458V13.6463C17.458 13.9261 17.458 14.206 17.4261 14.4838C17.3885 14.8397 17.2738 15.1833 17.0901 15.4909C16.7318 16.0724 16.2216 16.5458 15.6142 16.8605C14.9453 17.2177 14.2295 17.4796 13.4876 17.6386C13.0748 17.7344 12.6565 17.8052 12.2351 17.8506C11.9139 17.8867 11.5971 17.9185 11.276 17.9439C11.0633 17.963 10.8294 17.9715 10.6061 17.9778C10.4755 17.9778 10.345 17.9834 10.2144 17.9889C10.0537 17.9957 9.89279 18.0026 9.73205 17.999C9.30673 17.999 8.88141 17.9736 8.45609 17.9354C7.66167 17.8745 6.87443 17.7418 6.10408 17.539C5.34359 17.3487 4.61997 17.0342 3.9626 16.6082C3.47982 16.2892 3.08733 15.8519 2.82274 15.3382C2.66283 15.0356 2.57 14.7023 2.55054 14.3608C2.54199 14.1876 2.53726 14.0143 2.53252 13.8405C2.53018 13.7548 2.52783 13.6687 2.52502 13.5827C2.52284 13.553 2.52284 13.5233 2.52502 13.4936C3.14846 13.5432 3.76706 13.6047 4.38812 13.6665C4.59115 13.6868 4.79444 13.707 4.99825 13.7268C4.99825 13.7507 5.00162 13.7739 5.00494 13.7968C5.00752 13.8146 5.01008 13.8322 5.01101 13.8498C5.02009 13.9856 5.0282 14.1216 5.03635 14.2582C5.0492 14.4737 5.06215 14.6907 5.07906 14.9099C5.07716 14.9529 5.08439 14.9958 5.10029 15.0358C5.11619 15.0759 5.1404 15.1121 5.17132 15.1421C5.20225 15.1721 5.23919 15.1953 5.27973 15.2101C5.32027 15.2249 5.36349 15.231 5.40656 15.2279C5.7142 15.2463 6.02185 15.2685 6.3295 15.2906C6.48332 15.3017 6.63735 15.3128 6.79117 15.3234C7.06969 15.3424 7.3482 15.3615 7.62885 15.3848C7.82449 15.3997 8.02014 15.4166 8.21579 15.4378C8.26147 15.4507 8.30947 15.453 8.3562 15.4448C8.40293 15.4365 8.44717 15.4178 8.48562 15.3901C8.52408 15.3623 8.55574 15.3263 8.57825 15.2846C8.60075 15.243 8.61352 15.1968 8.61559 15.1495C8.64286 15.0088 8.66287 14.8668 8.68292 14.7246C8.68942 14.6785 8.69602 14.6317 8.70278 14.5855L8.8006 14.0428Z" fill="white"/>
</svg>

<svg xmlns="http://www.w3.org/2000/svg" viewBox="0 0 20 20">
  <rect width="100%" height="100%" fill="#478CBE"/>
  <path fill="#fff" d="M14.52 11.1a1.1 1.1 0 0 0 .02-1.54 1.1 1.1 0 0 0-.77-.33 1.1 1.1 0 0 0-1.16 1.08 1.1 1.1 0 0 0 1.13 1.11c.3 0 .57-.1.78-.31ZM7.02 9.55a1.1 1.1 0 0 0-1.8.36 1.1 1.1 0 0 0 .81 1.5 1.1 1.1 0 0 0 1.32-1.09c0-.29-.12-.56-.33-.77Z"/>
  <path fill="#fff" fill-rule="evenodd" d="m14.02 14.68-.82.05-.65.05-.4.03h-.22l-.03-.18-.04-.27-.05-.33a35.5 35.5 0 0 0-.05-.34.3.3 0 0 0-.28-.25.7.7 0 0 0-.1 0H8.63a.34.34 0 0 0-.23.06c-.06.05-.1.1-.12.18a6.6 6.6 0 0 0-.1.63l-.08.5h-.13l-1.13-.09-.51-.03-.63-.03a42.56 42.56 0 0 1-.06-.55v-.2c0-.14-.02-.28-.04-.42v-.05a.3.3 0 0 0-.27-.28l-2.7-.25c-.02 0-.04 0-.07-.02V8.6a.55.55 0 0 0-.12-.36c-.24-.31-.47-.64-.7-.97l-.23-.34c.43-.72.95-1.4 1.54-2 .52.26 1.02.55 1.5.87a9.19 9.19 0 0 1 1.6-1.16L6 2.79A9.59 9.59 0 0 1 8.27 2c.31.53.6 1.07.85 1.63.59-.1 1.19-.1 1.77 0 .26-.56.54-1.1.85-1.63a9.7 9.7 0 0 1 2.26.79 17.7 17.7 0 0 1-.15 1.85c.58.34 1.12.73 1.62 1.18.48-.32.99-.61 1.5-.87.59.6 1.1 1.26 1.53 1.97-.29.48-.6.94-.95 1.38a.39.39 0 0 0-.08.26v4.33a.57.57 0 0 1-.09.02l-.27.03-.55.04a68.77 68.77 0 0 0-1.11.12 29.66 29.66 0 0 1-.86.09.3.3 0 0 0-.18.27l-.04.51-.03.51-.01.1-.02.08-.3.02Zm1.55-4.45a1.65 1.65 0 0 0-1.98-1.62 1.66 1.66 0 0 0-1.22 2.26 1.66 1.66 0 0 0 3.2-.64Zm-11.14 0a1.64 1.64 0 0 0 1.65 1.67 1.67 1.67 0 0 0 1.65-1.97A1.66 1.66 0 0 0 5.46 8.7a1.66 1.66 0 0 0-1.03 1.53Zm6.1.58V10a.4.4 0 0 0-.11-.29.56.56 0 0 0-.68-.11.45.45 0 0 0-.27.4v1.56a.5.5 0 0 0 .43.46.53.53 0 0 0 .59-.28.53.53 0 0 0 .05-.23 4.93 4.93 0 0 1 0-.71Z" clip-rule="evenodd"/>
  <path fill="#fff" d="M8.8 14.04h2.4v.08l.04.2.07.5.04.23v.03c.04.3.17.39.47.34a.7.7 0 0 1 .1 0l1.13-.07.9-.06.43-.04.24-.02a.3.3 0 0 0 .28-.31l.03-.4v-.13l.05-.64.1-.01.17-.03a24.9 24.9 0 0 1 .8-.07l1.12-.11h.29v.12c0 .28 0 .56-.03.83-.04.36-.16.7-.34 1.01a3.77 3.77 0 0 1-1.48 1.37c-.66.36-1.38.62-2.12.78-.42.1-.83.17-1.25.21a29.1 29.1 0 0 1-1.63.13h-.4c-.16.02-.32.02-.48.02a13.2 13.2 0 0 1-3.63-.46 7.11 7.11 0 0 1-2.14-.93 3.37 3.37 0 0 1-1.14-1.27c-.16-.3-.25-.64-.27-.98l-.02-.52v-.26a.6.6 0 0 1 0-.09 94.36 94.36 0 0 1 2.47.24v.07l.01.05.03.4a37.32 37.32 0 0 0 .06.79.3.3 0 0 0 .3.19l.93.06a143.17 143.17 0 0 0 1.89.15.32.32 0 0 0 .4-.29l.06-.43.02-.13.1-.55Z"/>
</svg>
